X:276
M:4/4
L:1/4
K:A
E | A G A B | c2 A A | F d c B | A3 E | A G A B | c2 A A | F d c B | A3 c | B G A F | G2 E E | F G A B | c3 !sintro!E | A G F E | B2 B c | d B A G | A3 !eintro!|]
